arkscan/icons/swapuz.svg

<svg viewBox="0 0 20 20" fill="none" xmlns="http://www.w3.org/2000/svg">
  <path fill-rule="evenodd" clip-rule="evenodd"
    d="M13.4633 0.139118C14.0543 -0.219076 14.8114 0.196834 14.8261 0.887756L14.9152 5.07546L19.2539 5.82339C19.9349 5.9408 20.2335 6.75143 19.7913 7.28251L16.9042 10.75L19.0967 12.5117C19.6354 12.9445 19.5036 13.7982 18.8593 14.0484L14.8974 15.5866L15.383 18.0351C15.5175 18.713 14.8677 19.2822 14.2134 19.0597L11.3872 18.0986C8.1639 19.664 4.30208 18.8524 1.97351 16.1965C5.42245 17.1922 8.18682 16.1514 9.49893 15.0756C9.81843 14.8136 9.86507 14.3422 9.6031 14.0227C9.34114 13.7032 8.86976 13.6566 8.55026 13.9185C7.46109 14.8116 4.48625 15.9855 0.635357 14.0708C-0.893235 10.4973 0.401213 6.25177 3.82094 4.17916C5.32567 3.26717 7.01301 2.91463 8.64052 3.0621L13.4633 0.139118ZM7.05094 9.21989C6.34423 9.64819 5.42414 9.4225 4.99585 8.71584C4.56755 8.00913 4.7932 7.08908 5.49991 6.66074C6.20657 6.23245 7.12666 6.45814 7.55495 7.1648C7.98329 7.87147 7.7576 8.79156 7.05094 9.21989Z"
    fill="#02C076" />
</svg>

<svg viewBox="0 0 20 20" fill="none" xmlns="http://www.w3.org/2000/svg"><path fill-rule="evenodd" clip-rule="evenodd" d="M13.463.14a.898.898 0 0 1 1.363.748l.09 4.187 4.338.748c.68.118.98.928.537 1.46l-2.887 3.467 2.193 1.762a.898.898 0 0 1-.238 1.536l-3.962 1.539.486 2.448a.898.898 0 0 1-1.17 1.025l-2.826-.961a7.934 7.934 0 0 1-9.413-1.902c3.448.995 6.213-.046 7.525-1.121a.748.748 0 0 0-.949-1.158c-1.089.894-4.064 2.068-7.915.153A7.932 7.932 0 0 1 8.641 3.062L13.463.14ZM7.051 9.22A1.496 1.496 0 1 1 5.5 6.66a1.496 1.496 0 0 1 1.55 2.56Z" fill="#02C076"/></svg>
